static/markerGreen.svg

<svg width="30" height="36" viewBox="0 0 30 36" fill="none" xmlns="http://www.w3.org/2000/svg">
<path d="M25.2 4.31671C22.14 1.25671 18.07 -0.173289 14.06 0.0167109C10.52 0.186711 7.02 1.61671 4.32 4.32671C-1.44 10.0867 -1.44 19.4367 4.32 25.2067L14.76 35.6467L25.2 25.2067C30.96 19.4467 30.96 10.0967 25.2 4.32671V4.31671Z" fill="#009630"/>
<path d="M18.6 24H11.31C9.825 24 8.655 22.785 8.655 21.345V13.2C8.655 12.93 8.835 12.75 9.105 12.75C9.375 12.75 9.555 12.93 9.555 13.2V21.345C9.555 22.335 10.365 23.1 11.31 23.1H18.6C19.59 23.1 20.355 22.29 20.355 21.345V13.2C20.355 12.93 20.535 12.75 20.805 12.75C21.075 12.75 21.255 12.93 21.255 13.2V21.345C21.255 22.785 20.04 24 18.6 24Z" fill="white"/>
<path d="M20.985 8.205H17.565C17.34 6.945 16.26 6 14.955 6C13.65 6 12.57 6.945 12.345 8.205H8.92499C7.88999 8.205 7.07999 9.015 7.07999 10.05C7.07999 11.085 7.88999 11.85 8.92499 11.85H21.03C22.065 11.85 22.875 11.04 22.875 10.005C22.875 8.97 22.02 8.205 20.985 8.205ZM14.955 6.9C15.765 6.9 16.44 7.44 16.62 8.205H13.245C13.47 7.44 14.145 6.9 14.955 6.9ZM20.985 10.95H8.92499C8.42999 10.95 7.97999 10.545 7.97999 10.005C7.97999 9.51 8.38499 9.06 8.92499 9.06H21.03C21.525 9.06 21.975 9.465 21.975 10.005C21.93 10.545 21.525 10.95 20.985 10.95Z" fill="white"/>
<path d="M11.805 21.7949C11.535 21.7949 11.355 21.6149 11.355 21.3449V13.8299C11.355 13.5599 11.535 13.3799 11.805 13.3799C12.075 13.3799 12.255 13.5599 12.255 13.8299V21.3449C12.255 21.5699 12.03 21.7949 11.805 21.7949Z" fill="white"/>
<path d="M18.105 21.7949C17.835 21.7949 17.655 21.6149 17.655 21.3449V13.8299C17.655 13.5599 17.835 13.3799 18.105 13.3799C18.375 13.3799 18.555 13.5599 18.555 13.8299V21.3449C18.555 21.5699 18.33 21.7949 18.105 21.7949Z" fill="white"/>
<path d="M14.955 21.7949C14.685 21.7949 14.505 21.6149 14.505 21.3449V13.8299C14.505 13.5599 14.685 13.3799 14.955 13.3799C15.225 13.3799 15.405 13.5599 15.405 13.8299V21.3449C15.405 21.5699 15.18 21.7949 14.955 21.7949Z" fill="white"/>
</svg>

<svg xmlns="http://www.w3.org/2000/svg" width="30" height="36" fill="none"><path fill="#009630" d="M25.2 4.317a14.715 14.715 0 0 0-11.14-4.3c-3.54.17-7.04 1.6-9.74 4.31-5.76 5.76-5.76 15.11 0 20.88l10.44 10.44 10.44-10.44c5.76-5.76 5.76-15.11 0-20.88v-.01Z"/><path fill="#fff" d="M18.6 24h-7.29a2.66 2.66 0 0 1-2.655-2.655V13.2c0-.27.18-.45.45-.45s.45.18.45.45v8.145c0 .99.81 1.755 1.755 1.755h7.29c.99 0 1.755-.81 1.755-1.755V13.2c0-.27.18-.45.45-.45s.45.18.45.45v8.145c0 1.44-1.215 2.655-2.655 2.655ZM20.985 8.205h-3.42A2.656 2.656 0 0 0 14.955 6a2.656 2.656 0 0 0-2.61 2.205h-3.42c-1.035 0-1.845.81-1.845 1.845s.81 1.8 1.845 1.8H21.03c1.035 0 1.845-.81 1.845-1.845s-.855-1.8-1.89-1.8ZM14.955 6.9c.81 0 1.485.54 1.665 1.305h-3.375c.225-.765.9-1.305 1.71-1.305Zm6.03 4.05H8.925a.95.95 0 0 1-.945-.945.95.95 0 0 1 .945-.945H21.03a.95.95 0 0 1 .945.945c-.045.54-.45.945-.99.945Z"/><path fill="#fff" d="M11.805 21.795c-.27 0-.45-.18-.45-.45V13.83c0-.27.18-.45.45-.45s.45.18.45.45v7.515c0 .225-.225.45-.45.45ZM18.105 21.795c-.27 0-.45-.18-.45-.45V13.83c0-.27.18-.45.45-.45s.45.18.45.45v7.515c0 .225-.225.45-.45.45ZM14.955 21.795c-.27 0-.45-.18-.45-.45V13.83c0-.27.18-.45.45-.45s.45.18.45.45v7.515c0 .225-.225.45-.45.45Z"/></svg>
